src/assets/outline/Wanchain1.svg

<svg width="24" height="24" viewBox="0 0 24 24"  xmlns="http://www.w3.org/2000/svg">
<path d="M18.7301 21.7505H12.2701C11.8501 21.7505 11.4601 21.5405 11.2301 21.1905L8.3101 16.8105L6.05009 20.6805C5.83009 21.0605 5.44011 21.2905 5.01011 21.3005C4.59011 21.3405 4.17009 21.1105 3.93009 20.7405L0.560098 15.6805C0.280098 15.2605 0.280098 14.7105 0.560098 14.2905L4.23011 8.79047C4.46011 8.44047 4.85009 8.23047 5.27009 8.23047H10.2001L7.80009 4.11047C7.58009 3.72047 7.57009 3.24047 7.80009 2.86047C8.02009 2.47047 8.44011 2.23047 8.88011 2.23047H15.7201C16.1601 2.23047 16.5801 2.47048 16.8001 2.85048L23.5001 14.3305C23.7401 14.7505 23.7301 15.2505 23.4601 15.6505L19.7801 21.1705C19.5401 21.5405 19.1501 21.7505 18.7301 21.7505ZM12.4001 20.2505H18.6001L22.1201 14.9705L15.5701 3.75047H9.3101L12.8101 9.75047L15.2101 13.8705C15.4301 14.2505 15.4401 14.7305 15.2101 15.1205C14.9901 15.5105 14.5701 15.7505 14.1301 15.7505H9.40009L12.4001 20.2505ZM1.90009 15.0005L4.96009 19.5805L7.20011 15.7505L10.7001 9.75047H5.4101L1.90009 15.0005ZM9.8101 14.2505H13.7001L11.7601 10.9205L9.8101 14.2505Z" />
</svg>

<?xml version="1.0" encoding="UTF-8"?>
<svg width="24" height="24" viewBox="0 0 24 24" xmlns="http://www.w3.org/2000/svg">
 <path d="m18.73 21.75h-6.46c-0.42 0-0.81-0.21-1.04-0.56l-2.92-4.38-2.26 3.87c-0.22 0.38-0.60998 0.61-1.04 0.62-0.42 0.04-0.84002-0.19-1.08-0.56l-3.37-5.06c-0.28-0.42-0.28-0.97 0-1.39l3.67-5.5c0.23-0.35 0.61998-0.56 1.04-0.56h4.93l-2.4-4.12c-0.22-0.39-0.23-0.87 0-1.25 0.22-0.39 0.64002-0.63 1.08-0.63h6.84c0.44 0 0.86 0.24001 1.08 0.62001l6.7 11.48c0.24 0.42 0.23 0.92-0.04 1.32l-3.68 5.52c-0.24 0.37-0.63 0.58-1.05 0.58zm-6.33-1.5h6.2l3.52-5.28-6.55-11.22h-6.26l3.5 6 2.4 4.12c0.22 0.38 0.23 0.86 0 1.25-0.22 0.39-0.64 0.63-1.08 0.63h-4.73l3 4.5zm-10.5-5.25 3.06 4.58 2.24-3.83 3.5-6h-5.29l-3.51 5.25zm7.91-0.75h3.89l-1.94-3.33-1.95 3.33z"/>
</svg>
